dist/images/socialMedia/vk.svg

<svg width="18" height="10" viewBox="0 0 18 10" fill="none" xmlns="http://www.w3.org/2000/svg">
<path d="M14.225 5.73485C13.9471 5.38333 14.0275 5.22933 14.225 4.91798C14.2283 4.91463 16.5149 1.75427 16.7526 0.682959C16.8698 0.291262 16.7526 0.00669568 16.1868 0.00669568H14.312C13.8333 0.00669568 13.6157 0.254436 13.4985 0.528959C13.4985 0.528959 12.5444 2.81219 11.1952 4.29193C10.76 4.72046 10.5591 4.85772 10.3214 4.85772C10.2042 4.85772 10.0234 4.72046 10.0234 4.32876V0.676264C10.0234 0.207566 9.88952 0 9.49448 0H6.54838C6.25042 0 6.06963 0.21761 6.06963 0.421828C6.06963 0.867091 6.7459 0.967526 6.8162 2.21962V4.93137C6.8162 5.52394 6.70907 5.63442 6.46803 5.63442C5.83194 5.63442 4.28524 3.34114 3.36793 0.716438C3.18045 0.207566 2.99966 0 2.51758 0H0.642785C0.107131 0 0 0.24774 0 0.522263C0 1.0077 0.63609 3.43154 2.96284 6.63207C4.51289 8.81486 6.69568 10 8.68095 10C9.87278 10 10.0201 9.73552 10.0201 9.28356C10.0201 7.19786 9.91295 7.00033 10.5089 7.00033C10.7867 7.00033 11.2621 7.1376 12.377 8.19217C13.6491 9.44091 13.8601 10 14.5731 10H16.4479C16.9836 10 17.2514 9.73552 17.0974 9.21995C16.7392 8.12856 14.3321 5.88216 14.225 5.73485Z" fill="white"/>
</svg>

<svg width="18" height="10" fill="none" xmlns="http://www.w3.org/2000/svg"><path d="M14.225 5.735c-.278-.352-.197-.506 0-.817.003-.003 2.29-3.164 2.528-4.235.117-.392 0-.676-.566-.676h-1.875c-.479 0-.696.247-.813.522 0 0-.955 2.283-2.304 3.763-.435.428-.636.566-.874.566-.117 0-.298-.138-.298-.53V.677C10.023.208 9.89 0 9.494 0H6.548C6.25 0 6.07.218 6.07.422c0 .445.676.546.746 1.798V4.93c0 .593-.107.703-.348.703-.636 0-2.183-2.293-3.1-4.918C3.18.208 3 0 2.518 0H.643C.107 0 0 .248 0 .522c0 .486.636 2.91 2.963 6.11C4.513 8.815 6.696 10 8.68 10c1.192 0 1.34-.264 1.34-.716 0-2.086-.108-2.284.488-2.284.278 0 .753.138 1.868 1.192C13.649 9.441 13.86 10 14.573 10h1.875c.536 0 .803-.264.65-.78-.359-1.091-2.766-3.338-2.873-3.485z" fill="#fff"/></svg>
